X: 22516
T: Lady Ellen
R: reel
M: 4/4
K: Eminor
BA|:BEED E2BA|BAFE EDBA|D2AD D2AD|BAFE EDBA
BEED E2BA|BAFE EDBA|AB B2 d3B|AFFE EDBA:|
|:Beed e2BA|Beed e2fg|fddc d2fg|fddc dBBA|
Beed e2BA|Beed e2fg|fddc d2BA|1 BAFE EDBA:|2 BAFD E4||

